public/img/logo-icinga-inv.svg

<?xml version="1.0" encoding="UTF-8" standalone="no"?>
<svg width="100px" height="38px" viewBox="0 0 100 38" version="1.1" xmlns="http://www.w3.org/2000/svg" xmlns:xlink="http://www.w3.org/1999/xlink">
    <title>logo-icinga-inv</title>
    <defs>
        <polygon id="path-1" points="29.0010033 0.0003 3.56914485e-15 0.0003 3.56914485e-15 33.6943 97.493 33.6943 97.493 0.0003 29.0010033 0.0003 29.0010033 30.0000006 -5.56845919e-07 30.0000006 -5.56845919e-07 -1.99375877e-05 29.0010033 -1.99375877e-05"></polygon>
    </defs>
    <g id="assets" stroke="none" stroke-width="1" fill="none" fill-rule="evenodd">
        <g id="Page-1">
            <path d="M27.0415,15.7451 C26.6375,15.7451 26.2945,15.8861 26.0135,16.1671 C25.7325,16.4481 25.5915,16.7911 25.5915,17.1951 L25.5915,31.6911 C25.5915,32.0961 25.7365,32.4381 26.0265,32.7191 C26.3165,33.0001 26.6545,33.1411 27.0415,33.1411 C27.4455,33.1411 27.7885,33.0001 28.0695,32.7191 C28.3505,32.4381 28.4915,32.0961 28.4915,31.6911 L28.4915,17.1951 C28.4915,16.7911 28.3465,16.4481 28.0565,16.1671 C27.7665,15.8861 27.4275,15.7451 27.0415,15.7451" id="Fill-1" fill="#FEFEFE"></path>
            <path d="M34.3296,20.2129 C34.5146,19.7819 34.7686,19.4089 35.0936,19.0929 C35.4186,18.7759 35.7966,18.5259 36.2266,18.3419 C36.6576,18.1569 37.1186,18.0649 37.6106,18.0649 C38.3666,18.0649 39.0376,18.2759 39.6276,18.6969 C40.2156,19.1189 40.6416,19.6549 40.9056,20.3049 C41.1866,20.8849 41.6256,21.1749 42.2236,21.1749 C42.6806,21.1749 43.0316,21.0249 43.2776,20.7269 C43.5236,20.4279 43.6466,20.1039 43.6466,19.7509 C43.6466,19.6469 43.6336,19.5239 43.6066,19.3829 C43.5806,19.2419 43.5326,19.1099 43.4616,18.9869 C43.2156,18.4249 42.8956,17.9109 42.4996,17.4449 C42.1046,16.9799 41.6526,16.5749 41.1426,16.2329 C40.6326,15.8909 40.0796,15.6269 39.4826,15.4419 C38.8846,15.2579 38.2606,15.1649 37.6106,15.1649 C36.7146,15.1649 35.8756,15.3329 35.0936,15.6659 C34.3116,15.9999 33.6306,16.4569 33.0516,17.0369 C32.4716,17.6159 32.0146,18.2979 31.6806,19.0789 C31.3466,19.8609 31.1796,20.6919 31.1796,21.5699 L31.1796,27.2889 C31.1796,28.1679 31.3506,28.9939 31.6936,29.7669 C32.0366,30.5399 32.4976,31.2169 33.0776,31.7969 C33.6576,32.3759 34.3386,32.8379 35.1206,33.1799 C35.9016,33.5229 36.7316,33.6939 37.6106,33.6939 C38.2966,33.6939 38.9466,33.5979 39.5616,33.4039 C40.1766,33.2109 40.7386,32.9349 41.2476,32.5739 C41.7576,32.2139 42.2096,31.7879 42.6056,31.2959 C43.0006,30.8039 43.3126,30.2589 43.5406,29.6609 C43.6116,29.5029 43.6466,29.3189 43.6466,29.1089 C43.6466,28.7569 43.5186,28.4319 43.2646,28.1329 C43.0096,27.8339 42.6626,27.6849 42.2236,27.6849 C41.9946,27.6849 41.7526,27.7639 41.4986,27.9219 C41.2436,28.0799 41.0546,28.2819 40.9316,28.5279 C40.6506,29.1789 40.2156,29.7189 39.6276,30.1499 C39.0376,30.5799 38.3666,30.7949 37.6106,30.7949 C37.1366,30.7949 36.6836,30.7019 36.2536,30.5189 C35.8226,30.3339 35.4456,30.0829 35.1206,29.7669 C34.7946,29.4509 34.5356,29.0769 34.3426,28.6469 C34.1486,28.2169 34.0526,27.7639 34.0526,27.2889 L34.0526,21.5699 C34.0526,21.0959 34.1446,20.6439 34.3296,20.2129" id="Fill-3" fill="#FEFEFE"></path>
            <path d="M47.8896,15.7451 C47.4856,15.7451 47.1426,15.8861 46.8616,16.1671 C46.5806,16.4481 46.4396,16.7911 46.4396,17.1951 L46.4396,31.6911 C46.4396,32.0961 46.5846,32.4381 46.8746,32.7191 C47.1646,33.0001 47.5026,33.1411 47.8896,33.1411 C48.2936,33.1411 48.6366,33.0001 48.9176,32.7191 C49.1986,32.4381 49.3396,32.0961 49.3396,31.6911 L49.3396,17.1951 C49.3396,16.7911 49.1946,16.4481 48.9046,16.1671 C48.6146,15.8861 48.2756,15.7451 47.8896,15.7451" id="Fill-5" fill="#FEFEFE"></path>
            <path d="M62.9653,17.0898 C62.3853,16.5098 61.7043,16.0478 60.9233,15.7058 C60.1403,15.3628 59.3103,15.1918 58.4323,15.1918 C57.5533,15.1918 56.7233,15.3628 55.9413,15.7058 C55.1593,16.0478 54.4783,16.5098 53.8993,17.0898 C53.3193,17.6688 52.8613,18.3458 52.5283,19.1188 C52.1943,19.8928 52.0273,20.7178 52.0273,21.5968 L52.0273,31.6918 C52.0273,32.0958 52.1683,32.4388 52.4493,32.7188 C52.7303,32.9998 53.0723,33.1408 53.4773,33.1408 C53.8813,33.1408 54.2193,32.9998 54.4913,32.7188 C54.7643,32.4388 54.9003,32.0958 54.9003,31.6918 L54.9003,21.5968 C54.9003,21.1218 54.9923,20.6698 55.1773,20.2388 C55.3613,19.8088 55.6113,19.4358 55.9283,19.1188 C56.2443,18.8028 56.6173,18.5518 57.0483,18.3678 C57.4793,18.1838 57.9403,18.0908 58.4323,18.0908 C58.9233,18.0908 59.3853,18.1838 59.8163,18.3678 C60.2463,18.5518 60.6243,18.8028 60.9493,19.1188 C61.2743,19.4358 61.5293,19.8088 61.7133,20.2388 C61.8983,20.6698 61.9903,21.1218 61.9903,21.5968 L61.9903,31.6918 C61.9903,32.0958 62.1353,32.4388 62.4253,32.7188 C62.7153,32.9998 63.0533,33.1408 63.4403,33.1408 C63.8443,33.1408 64.1823,32.9998 64.4543,32.7188 C64.7273,32.4388 64.8623,32.0958 64.8623,31.6918 L64.8623,21.5968 C64.8623,20.7178 64.6923,19.8928 64.3493,19.1188 C64.0063,18.3458 63.5453,17.6688 62.9653,17.0898" id="Fill-7" fill="#FEFEFE"></path>
            <path d="M79.1479,23.705 L76.2749,23.705 C75.8709,23.705 75.5329,23.846 75.2599,24.127 C74.9879,24.408 74.8519,24.742 74.8519,25.128 C74.8519,25.532 74.9879,25.875 75.2599,26.156 C75.5329,26.437 75.8709,26.578 76.2749,26.578 L77.6989,26.578 L77.6989,27.289 C77.6989,27.764 77.6059,28.217 77.4209,28.646 C77.2369,29.077 76.9869,29.451 76.6699,29.767 C76.3539,30.083 75.9809,30.334 75.5499,30.518 C75.1199,30.702 74.6589,30.795 74.1669,30.795 C73.6919,30.795 73.2399,30.702 72.8089,30.518 C72.3779,30.334 72.0009,30.083 71.6759,29.767 C71.3499,29.451 71.0959,29.077 70.9119,28.646 C70.7269,28.217 70.6349,27.764 70.6349,27.289 L70.6349,21.597 C70.6349,21.122 70.7269,20.67 70.9119,20.239 C71.0959,19.809 71.3459,19.435 71.6629,19.119 C71.9789,18.803 72.3519,18.552 72.7829,18.368 C73.2129,18.184 73.6739,18.091 74.1669,18.091 C74.9209,18.091 75.5939,18.302 76.1829,18.724 C76.7709,19.145 77.2069,19.69 77.4879,20.357 C77.6099,20.639 77.7939,20.85 78.0409,20.99 C78.2869,21.131 78.5329,21.201 78.7789,21.201 C79.2359,21.201 79.5869,21.052 79.8339,20.753 C80.0799,20.454 80.2029,20.13 80.2029,19.777 C80.2029,19.672 80.1979,19.571 80.1889,19.475 C80.1799,19.378 80.1579,19.286 80.1239,19.198 C79.8769,18.601 79.5559,18.056 79.1619,17.563 C78.7659,17.072 78.3089,16.65 77.7909,16.299 C77.2719,15.947 76.7059,15.675 76.0899,15.481 C75.4749,15.288 74.8349,15.191 74.1669,15.191 C73.2879,15.191 72.4579,15.359 71.6759,15.692 C70.8939,16.026 70.2129,16.483 69.6329,17.063 C69.0529,17.643 68.5919,18.324 68.2499,19.105 C67.9069,19.888 67.7359,20.718 67.7359,21.597 L67.7359,27.289 C67.7359,28.168 67.9069,28.994 68.2499,29.767 C68.5919,30.54 69.0529,31.217 69.6329,31.797 C70.2129,32.376 70.8939,32.838 71.6759,33.18 C72.4579,33.522 73.2879,33.694 74.1669,33.694 C75.0449,33.694 75.8759,33.522 76.6579,33.18 C77.4389,32.838 78.1199,32.376 78.6999,31.797 C79.2799,31.217 79.7409,30.54 80.0839,29.767 C80.4259,28.994 80.5969,28.168 80.5969,27.289 L80.5969,25.128 C80.5969,24.725 80.4569,24.386 80.1759,24.113 C79.8949,23.841 79.5519,23.705 79.1479,23.705" id="Fill-9" fill="#FEFEFE"></path>
            <path d="M87.6353,25.5761 C87.8273,25.1191 88.0123,24.6891 88.1883,24.2851 C88.3643,23.8811 88.5393,23.4851 88.7153,23.0981 C88.8913,22.7131 89.0623,22.3211 89.2293,21.9261 C89.3963,21.5301 89.5753,21.1221 89.7703,20.7001 L91.8783,25.5761 L87.6353,25.5761 Z M97.3613,31.1901 L91.0873,16.5101 C90.9473,16.1931 90.6923,15.9471 90.3233,15.7711 C90.2353,15.7191 90.1433,15.6831 90.0463,15.6661 C89.9493,15.6481 89.8583,15.6391 89.7703,15.6391 C89.1723,15.6391 88.7333,15.9301 88.4513,16.5101 L82.1793,31.1901 C82.1443,31.2611 82.1173,31.3481 82.1003,31.4541 C82.0823,31.5591 82.0733,31.6561 82.0733,31.7441 C82.0733,32.0781 82.2003,32.3981 82.4553,32.7061 C82.7103,33.0131 83.0573,33.1671 83.4963,33.1671 C83.7783,33.1671 84.0323,33.0971 84.2613,32.9561 C84.4893,32.8151 84.6733,32.5971 84.8153,32.2971 C85.0783,31.6471 85.3463,31.0111 85.6183,30.3871 C85.8913,29.7631 86.1673,29.1261 86.4483,28.4751 L93.1163,28.4751 L94.7513,32.2971 C94.9793,32.8771 95.4183,33.1671 96.0693,33.1671 C96.5083,33.1671 96.8553,33.0131 97.1103,32.7061 C97.3643,32.3981 97.4923,32.0781 97.4923,31.7441 C97.4923,31.5861 97.4483,31.4011 97.3613,31.1901 L97.3613,31.1901 Z" id="Fill-11" fill="#FEFEFE"></path>
            <mask id="mask-2" fill="white">
                <use xlink:href="#path-1"></use>
            </mask>
            <g id="Clip-14"></g>
            <path d="M27.001,9 C25.894,9.007 25.002,9.896 25.001,11.004 C25.001,11.024 25.006,11.044 25.007,11.064 L16.07,13.687 C15.878,13.019 15.553,12.377 15.087,11.805 C14.69,11.316 14.215,10.937 13.706,10.629 L16.119,5.853 C16.4,5.939 16.692,6 17.001,6 C18.651,6.007 19.999,4.656 20.001,3.001 C20.002,1.346 18.657,2.18392199e-16 17,2.18392199e-16 C15.35,-0.006 14.003,1.343 14.001,2.999 C14,3.987 14.485,4.858 15.225,5.406 L12.805,10.195 C11.102,9.568 9.128,9.812 7.621,11.043 C7.602,11.059 7.588,11.078 7.57,11.094 L4.813,8.837 C4.93,8.583 5,8.302 5.001,8.002 C4.999,6.899 4.11,5.994 3.002,6 C1.9,5.994 1.009,6.89 1.001,7.998 C1.003,9.101 1.892,10.005 2.999,10 C3.442,10.003 3.848,9.855 4.18,9.611 L6.858,11.804 C5.299,13.71 5.241,16.514 6.864,18.504 C7.125,18.824 7.42,19.095 7.734,19.338 L4.276,24.295 C3.888,24.111 3.459,24.001 3.001,24 C1.345,23.999 0.002,25.344 3.56914495e-15,27.003 C-0.001,28.656 1.345,29.999 3.001,30 C4.656,30.001 5.999,28.657 6,27.004 C6.001,26.164 5.655,25.407 5.101,24.862 L8.579,19.875 C9.897,20.541 11.445,20.616 12.841,20.092 L15.283,23.619 C15.105,23.867 14.999,24.169 15.001,24.499 C14.996,25.323 15.67,26.002 16.5,26 C17.33,25.998 18.002,25.323 18.001,24.499 C18.003,23.663 17.329,22.997 16.501,23 C16.363,22.998 16.233,23.021 16.107,23.054 L13.748,19.646 C13.943,19.525 14.143,19.414 14.325,19.266 C15.744,18.106 16.408,16.368 16.256,14.674 L25.292,12.022 C25.642,12.604 26.274,12.999 27.004,13 C28.106,12.992 29.003,12.104 29.001,10.995 C29.001,9.896 28.107,9.001 27.001,9" id="Fill-13" fill="#FEFEFE"></path>
        </g>
    </g>
</svg>

<svg width="100" height="38" viewBox="0 0 100 38" xmlns="http://www.w3.org/2000/svg" xmlns:xlink="http://www.w3.org/1999/xlink"><title>logo-icinga-inv</title><defs><path id="a" d="M29.001 0h-29.001v33.694h97.493v-33.694h-68.492v30h-29.001v-30h29.001z"/></defs><g fill="none"><path d="M27.041 15.745c-.404 0-.747.141-1.028.422s-.422.624-.422 1.028v14.496c0 .405.145.747.435 1.028.29.281.628.422 1.015.422.404 0 .747-.141 1.028-.422s.422-.623.422-1.028v-14.496c0-.404-.145-.747-.435-1.028-.29-.281-.629-.422-1.015-.422" fill="#FEFEFE"/><path d="M34.33 20.213c.185-.431.439-.804.764-1.12.325-.317.703-.567 1.133-.751.431-.185.892-.277 1.384-.277.756 0 1.427.211 2.017.632.588.422 1.014.958 1.278 1.608.281.58.72.87 1.318.87.457 0 .808-.15 1.054-.448.246-.299.369-.623.369-.976 0-.104-.013-.227-.04-.368-.026-.141-.074-.273-.145-.396-.246-.562-.566-1.076-.962-1.542-.395-.465-.847-.87-1.357-1.212-.51-.342-1.063-.606-1.66-.791-.598-.184-1.222-.277-1.872-.277-.896 0-1.735.168-2.517.501-.782.334-1.463.791-2.042 1.371-.58.579-1.037 1.261-1.371 2.042-.334.782-.501 1.613-.501 2.491v5.719c0 .879.171 1.705.514 2.478.343.773.804 1.45 1.384 2.03.58.579 1.261 1.041 2.043 1.383.781.343 1.611.514 2.49.514.686 0 1.336-.096 1.951-.29.615-.193 1.177-.469 1.686-.83.51-.36.962-.786 1.358-1.278.395-.492.707-1.037.935-1.635.071-.158.106-.342.106-.552 0-.352-.128-.677-.382-.976-.255-.299-.602-.448-1.041-.448-.229 0-.471.079-.725.237-.255.158-.444.36-.567.606-.281.651-.716 1.191-1.304 1.622-.59.43-1.261.645-2.017.645-.474 0-.927-.093-1.357-.276-.431-.185-.808-.436-1.133-.752-.326-.316-.585-.69-.778-1.12-.194-.43-.29-.883-.29-1.358v-5.719c0-.474.092-.926.277-1.357" fill="#FEFEFE"/><path d="M47.89 15.745c-.404 0-.747.141-1.028.422s-.422.624-.422 1.028v14.496c0 .405.145.747.435 1.028.29.281.628.422 1.015.422.404 0 .747-.141 1.028-.422s.422-.623.422-1.028v-14.496c0-.404-.145-.747-.435-1.028-.29-.281-.629-.422-1.015-.422" fill="#FEFEFE"/><path d="M62.965 17.09c-.58-.58-1.261-1.042-2.042-1.384-.783-.343-1.613-.514-2.491-.514-.879 0-1.709.171-2.491.514-.782.342-1.463.804-2.042 1.384-.58.579-1.038 1.256-1.371 2.029-.334.774-.501 1.599-.501 2.478v10.095c0 .404.141.747.422 1.027.281.281.623.422 1.028.422.404 0 .742-.141 1.014-.422.273-.28.409-.623.409-1.027v-10.095c0-.475.092-.927.277-1.358.184-.43.434-.803.751-1.12.316-.316.689-.567 1.12-.751.431-.184.892-.277 1.384-.277.491 0 .953.093 1.384.277.43.184.808.435 1.133.751.325.317.58.69.764 1.12.185.431.277.883.277 1.358v10.095c0 .404.145.747.435 1.027.29.281.628.422 1.015.422.404 0 .742-.141 1.014-.422.273-.28.408-.623.408-1.027v-10.095c0-.879-.17-1.704-.513-2.478-.343-.773-.804-1.45-1.384-2.029" fill="#FEFEFE"/><path d="M79.148 23.705h-2.873c-.404 0-.742.141-1.015.422-.272.281-.408.615-.408 1.001 0 .404.136.747.408 1.028.273.281.611.422 1.015.422h1.424v.711c0 .475-.093.928-.278 1.357-.184.431-.434.805-.751 1.121-.316.316-.689.567-1.12.751-.43.184-.891.277-1.383.277-.475 0-.927-.093-1.358-.277-.431-.184-.808-.435-1.133-.751-.326-.316-.58-.69-.764-1.121-.185-.429-.277-.882-.277-1.357v-5.692c0-.475.092-.927.277-1.358.184-.43.434-.804.751-1.12.316-.316.689-.567 1.12-.751.43-.184.891-.277 1.384-.277.754 0 1.427.211 2.016.633.588.421 1.024.966 1.305 1.633.122.282.306.493.553.633.246.141.492.211.738.211.457 0 .808-.149 1.055-.448.246-.299.369-.623.369-.976l-.014-.302c-.009-.097-.031-.189-.065-.277-.247-.597-.568-1.142-.962-1.635-.396-.491-.853-.913-1.371-1.264-.519-.352-1.085-.624-1.701-.818-.615-.193-1.255-.29-1.923-.29-.879 0-1.709.168-2.491.501-.782.334-1.463.791-2.043 1.371-.58.58-1.041 1.261-1.383 2.042-.343.783-.514 1.613-.514 2.492v5.692c0 .879.171 1.705.514 2.478.342.773.803 1.45 1.383 2.03.58.579 1.261 1.041 2.043 1.383.782.342 1.612.514 2.491.514.878 0 1.709-.172 2.491-.514.781-.342 1.462-.804 2.042-1.383.58-.58 1.041-1.257 1.384-2.03.342-.773.513-1.599.513-2.478v-2.161c0-.403-.14-.742-.421-1.015-.281-.272-.624-.408-1.028-.408" fill="#FEFEFE"/><path d="M87.635 25.576c.192-.457.377-.887.553-1.291.176-.404.351-.8.527-1.187.176-.385.347-.777.514-1.172.167-.396.346-.804.541-1.226l2.108 4.876h-4.243zm9.726 5.614l-6.274-14.68c-.14-.317-.395-.563-.764-.739-.088-.052-.18-.088-.277-.105l-.276-.027c-.598 0-1.037.291-1.319.871l-6.272 14.68c-.035.071-.062.158-.079.264l-.027.29c0 .334.127.654.382.962.255.307.602.461 1.041.461.282 0 .536-.07.765-.211.228-.141.412-.359.554-.659.263-.65.531-1.286.803-1.91l.83-1.912h6.668l1.635 3.822c.228.58.667.87 1.318.87.439 0 .786-.154 1.041-.461.254-.308.382-.628.382-.962 0-.158-.044-.343-.131-.554z" fill="#FEFEFE"/><mask><use xlink:href="#a"/></mask><path d="M27.001 9c-1.107.007-1.999.896-2 2.004l.006.06-8.937 2.623c-.192-.668-.517-1.31-.983-1.882-.397-.489-.872-.868-1.381-1.176l2.413-4.776c.281.086.573.147.882.147 1.65.007 2.998-1.344 3-2.999.001-1.655-1.344-3.001-3.001-3.001-1.65-.006-2.997 1.343-2.999 2.999-.001.988.484 1.859 1.224 2.407l-2.42 4.789c-1.703-.627-3.677-.383-5.184.848l-.051.051-2.757-2.257c.117-.254.187-.535.188-.835-.002-1.103-.891-2.008-1.999-2.002-1.102-.006-1.993.89-2.001 1.998.002 1.103.891 2.007 1.998 2.002.443.003.849-.145 1.181-.389l2.678 2.193c-1.559 1.906-1.617 4.71.006 6.7.261.32.556.591.87.834l-3.458 4.957c-.388-.184-.817-.294-1.275-.295-1.656-.001-2.999 1.344-3.001 3.003-.001 1.653 1.345 2.996 3.001 2.997 1.655.001 2.998-1.343 2.999-2.996.001-.84-.345-1.597-.899-2.142l3.478-4.987c1.318.666 2.866.741 4.262.217l2.442 3.527c-.178.248-.284.55-.282.88-.005.824.669 1.503 1.499 1.501.83-.002 1.502-.677 1.501-1.501.002-.836-.672-1.502-1.5-1.499-.138-.002-.268.021-.394.054l-2.359-3.408c.195-.121.395-.232.577-.38 1.419-1.16 2.083-2.898 1.931-4.592l9.036-2.652c.35.582.982.977 1.712.978 1.102-.008 1.999-.896 1.997-2.005 0-1.099-.894-1.994-2-1.995" fill="#FEFEFE"/></g></svg>
